lib/flags/l/156.svg

<svg xmlns="http://www.w3.org/2000/svg" fill="none" viewBox="0 0 32 24"><mask id="156_svg__a" width="32" height="24" x="0" y="0" mask-type="alpha" maskUnits="userSpaceOnUse"><path fill="#fff" d="M0 0H32V24H0z"/></mask><g fill-rule="evenodd" clip-rule="evenodd" mask="url(#156_svg__a)"><path fill="#E31D1C" d="M0 0H32V24H0V0Z"/><path fill="#FECA00" d="M15.0157 4.54826 14.0056 5.15809 14.236 3.96806 13.3948 3.07744 14.5338 3.02928 15.0157 1.91809 15.4977 3.02928H16.6348L15.7955 3.96806 16.0482 5.15809 15.0157 4.54826zM7.01754 9.60716 4.1367 11.1581 4.7938 8.1316 2.39478 5.86656 5.6432 5.74409 7.01754 2.91809 8.39188 5.74409H11.6348L9.24127 8.1316 9.96186 11.1581 7.01754 9.60716zM17.0157 8.54826 16.0056 9.15809 16.236 7.96806 15.3948 7.07744 16.5338 7.02928 17.0157 5.91809 17.4977 7.02928H18.6348L17.7955 7.96806 18.0482 9.15809 17.0157 8.54826zM16.0157 12.5483 15.0056 13.1581 15.236 11.9681 14.3948 11.0774 15.5338 11.0293 16.0157 9.91809 16.4977 11.0293H17.6348L16.7955 11.9681 17.0482 13.1581 16.0157 12.5483zM13.0157 15.5483 12.0056 16.1581 12.236 14.9681 11.3948 14.0774 12.5338 14.0293 13.0157 12.9181 13.4977 14.0293H14.6348L13.7955 14.9681 14.0482 16.1581 13.0157 15.5483z"/></g></svg>

<svg xmlns="http://www.w3.org/2000/svg" fill="none" viewBox="0 0 32 24"><mask id="156_svg__a" width="32" height="24" x="0" y="0" maskUnits="userSpaceOnUse"><path fill="#fff" d="M0 0h32v24H0z"/></mask><g fill-rule="evenodd" clip-rule="evenodd" mask="url(#156_svg__a)"><path fill="#E31D1C" d="M0 0h32v24H0V0z"/><path fill="#FECA00" d="M15.016 4.548l-1.01.61.23-1.19-.841-.89 1.139-.049.482-1.11.482 1.11h1.137l-.84.94.253 1.19-1.032-.61zM7.018 9.607l-2.881 1.551.657-3.026-2.4-2.265 3.25-.123 1.374-2.826 1.374 2.826h3.243L9.24 8.132l.72 3.026-2.943-1.55zm9.998-1.059l-1.01.61.23-1.19-.841-.89 1.139-.049.482-1.11.482 1.11h1.137l-.84.94.253 1.19-1.032-.61zm-1 4l-1.01.61.23-1.19-.841-.89 1.139-.049.482-1.11.482 1.11h1.137l-.84.94.253 1.19-1.032-.61zm-3 3l-1.01.61.23-1.19-.841-.89 1.139-.049.482-1.11.482 1.11h1.137l-.84.94.253 1.19-1.032-.61z"/></g></svg>
